app/assets/images/info-pin-map.svg

<svg width="65" height="65" viewBox="0 0 65 65" fill="none" xmlns="http://www.w3.org/2000/svg">
<path d="M64.3959 32.4025C64.3959 50.1849 49.9804 64.6004 32.198 64.6004C14.4155 64.6004 0 50.1849 0 32.4025C0 14.62 14.4155 0.204498 32.198 0.204498C49.9804 0.204498 64.3959 14.62 64.3959 32.4025Z" fill="#EBF3FA"/>
<mask id="mask0_5_1151" style="mask-type:alpha" maskUnits="userSpaceOnUse" x="0" y="0" width="65" height="65">
<path d="M64.4135 32.3923C64.4135 50.1796 49.9941 64.5991 32.2068 64.5991C14.4195 64.5991 0 50.1796 0 32.3923C0 14.605 14.4195 0.185593 32.2068 0.185593C49.9941 0.185593 64.4135 14.605 64.4135 32.3923Z" fill="#EBF3FA"/>
</mask>
<g mask="url(#mask0_5_1151)">
<path d="M-0.000976562 24.2198C-0.000976562 23.1578 0.859887 22.297 1.92182 22.297H17.3042C18.3661 22.297 19.2269 23.1578 19.2269 24.2198V39.6021C19.2269 40.664 18.3661 41.5249 17.3042 41.5249H1.92182C0.859887 41.5249 -0.000976562 40.664 -0.000976562 39.6021V24.2198Z" fill="#9EACBC" fill-opacity="0.25"/>
<path d="M24.9953 19.4131C23.9334 19.4131 23.0725 18.5522 23.0725 17.4903L23.0725 13.6447C23.0725 12.5827 23.9334 11.7219 24.9953 11.7219L40.3776 11.7219C41.4396 11.7219 42.3004 12.5827 42.3004 13.6447L42.3004 17.4903C42.3004 18.5522 41.4396 19.4131 40.3776 19.4131L24.9953 19.4131Z" fill="#9EACBC" fill-opacity="0.25"/>
<path d="M24.9953 7.87631C23.9334 7.87631 23.0725 7.01545 23.0725 5.95352L23.0725 2.10793C23.0725 1.04601 23.9334 0.185142 24.9953 0.185142L40.3776 0.185141C41.4396 0.185141 42.3004 1.046 42.3004 2.10793L42.3004 5.95352C42.3004 7.01545 41.4396 7.87631 40.3776 7.87631L24.9953 7.87631Z" fill="#9EACBC" fill-opacity="0.25"/>
<path d="M1.92182 19.4131C0.859887 19.4131 -0.0009766 18.5522 -0.000976647 17.4903L-0.000976815 13.6447C-0.000976861 12.5827 0.859887 11.7219 1.92182 11.7219L17.3042 11.7219C18.3661 11.7219 19.2269 12.5827 19.2269 13.6447L19.2269 17.4903C19.2269 18.5522 18.3661 19.4131 17.3042 19.4131L1.92182 19.4131Z" fill="#9EACBC" fill-opacity="0.25"/>
<path d="M1.92182 7.87631C0.859887 7.87631 -0.0009766 7.01545 -0.000976647 5.95352L-0.000976815 2.10793C-0.000976861 1.04601 0.859887 0.185142 1.92182 0.185142L17.3042 0.185141C18.3661 0.185141 19.2269 1.046 19.2269 2.10793L19.2269 5.95352C19.2269 7.01545 18.3661 7.87631 17.3042 7.87631L1.92182 7.87631Z" fill="#9EACBC" fill-opacity="0.25"/>
<path d="M48.0683 64.598C47.0064 64.598 46.1455 63.7371 46.1455 62.6752L46.1455 58.8296C46.1455 57.7677 47.0064 56.9068 48.0683 56.9068L63.4506 56.9068C64.5126 56.9068 65.3734 57.7677 65.3734 58.8296L65.3734 62.6752C65.3734 63.7371 64.5126 64.598 63.4506 64.598L48.0683 64.598Z" fill="#9EACBC" fill-opacity="0.25"/>
<path d="M48.0683 53.0612C47.0064 53.0612 46.1455 52.2003 46.1455 51.1384L46.1455 47.2928C46.1455 46.2309 47.0064 45.37 48.0683 45.37L63.4506 45.37C64.5126 45.37 65.3734 46.2309 65.3734 47.2928L65.3734 51.1384C65.3734 52.2003 64.5126 53.0612 63.4506 53.0612L48.0683 53.0612Z" fill="#9EACBC" fill-opacity="0.25"/>
<path d="M23.0725 47.2932C23.0725 46.2313 23.9334 45.3704 24.9953 45.3704H40.3776C41.4396 45.3704 42.3004 46.2313 42.3004 47.2932V62.6756C42.3004 63.7375 41.4396 64.5984 40.3776 64.5984H24.9953C23.9334 64.5984 23.0725 63.7375 23.0725 62.6756V47.2932Z" fill="#9EACBC" fill-opacity="0.25"/>
<path d="M23.0725 24.2198C23.0725 23.1578 23.9334 22.297 24.9953 22.297H40.3776C41.4396 22.297 42.3004 23.1578 42.3004 24.2198V39.6021C42.3004 40.664 41.4396 41.5249 40.3776 41.5249H24.9953C23.9334 41.5249 23.0725 40.664 23.0725 39.6021V24.2198Z" fill="#9EACBC" fill-opacity="0.25"/>
<path d="M46.1455 24.2198C46.1455 23.1578 47.0064 22.297 48.0683 22.297H63.4506C64.5126 22.297 65.3734 23.1578 65.3734 24.2198V39.6021C65.3734 40.664 64.5126 41.5249 63.4506 41.5249H48.0683C47.0064 41.5249 46.1455 40.664 46.1455 39.6021V24.2198Z" fill="#9EACBC" fill-opacity="0.25"/>
<path d="M19.2273 50.5745V63.6358C19.2273 64.1668 18.7968 64.5972 18.2659 64.5972H5.20453C4.34802 64.5972 3.91908 63.5617 4.52472 62.956L17.586 49.8947C18.1917 49.2891 19.2273 49.718 19.2273 50.5745Z" fill="#9EACBC" fill-opacity="0.25"/>
<path d="M-0.000821029 59.3928L-0.000819888 46.3314C-0.000819841 45.8005 0.429613 45.37 0.960576 45.37L14.0219 45.37C14.8784 45.37 15.3074 46.4056 14.7017 47.0112L1.64038 60.0726C1.03474 60.6782 -0.000821104 60.2493 -0.000821029 59.3928Z" fill="#9EACBC" fill-opacity="0.25"/>
<path d="M65.3739 5.38962L65.3739 18.4509C65.3739 18.9819 64.9435 19.4123 64.4125 19.4123L51.3512 19.4123C50.4947 19.4123 50.0657 18.3768 50.6714 17.7711L63.7327 4.70981C64.3384 4.10417 65.3739 4.53311 65.3739 5.38962Z" fill="#9EACBC" fill-opacity="0.25"/>
<path d="M46.1456 14.2067L46.1456 1.1454C46.1456 0.614432 46.576 0.184 47.107 0.184L60.1683 0.184001C61.0248 0.184001 61.4538 1.21956 60.8481 1.82521L47.7868 14.8865C47.1811 15.4922 46.1456 15.0632 46.1456 14.2067Z" fill="#9EACBC" fill-opacity="0.25"/>
</g>
<path fill-rule="evenodd" clip-rule="evenodd" d="M0 32.4989C0 14.5548 14.5456 0 32.4989 0C50.4521 0 64.9978 14.5548 64.9978 32.4989H63.1043C63.1043 15.5862 49.3972 1.884 32.4989 1.884C15.6006 1.884 1.89347 15.5862 1.89347 32.4989H0Z" fill="#A8B6C6"/>
<path fill-rule="evenodd" clip-rule="evenodd" d="M32.4989 64.5999C14.5456 64.5999 0 50.045 0 32.101H1.89347C1.89347 49.0137 15.6006 62.7159 32.4989 62.7159C49.3972 62.7159 63.1043 49.0137 63.1043 32.101H64.9978C64.9978 50.045 50.4521 64.5999 32.4989 64.5999Z" fill="#A8B6C6"/>
<path d="M41.8004 27.9C41.7984 29.6163 41.2877 31.2935 40.3327 32.7196C39.3778 34.1457 38.0214 35.2567 36.4352 35.9122C34.849 36.5676 33.104 36.7381 31.4209 36.402C29.7378 36.066 28.1921 35.2385 26.9792 34.0242C25.7663 32.8099 24.9406 31.2632 24.6065 29.5797C24.2724 27.8962 24.4449 26.1515 25.1021 24.566C25.7594 22.9805 26.8719 21.6255 28.2991 20.6722C29.7263 19.7188 31.4041 19.21 33.1204 19.21C35.4234 19.2127 37.6312 20.1294 39.2587 21.7588C40.8862 23.3882 41.8004 25.597 41.8004 27.9Z" fill="#76848C"/>
<path d="M31.46 53.46C19.27 36.05 17 34.26 17 27.87C17 23.5947 18.6984 19.4945 21.7214 16.4714C24.7445 13.4484 28.8447 11.75 33.12 11.75C37.3953 11.75 41.4955 13.4484 44.5186 16.4714C47.5416 19.4945 49.24 23.5947 49.24 27.87C49.24 34.26 46.97 36.05 34.78 53.46C34.597 53.7322 34.3499 53.9553 34.0605 54.1096C33.771 54.2638 33.448 54.3445 33.12 54.3445C32.792 54.3445 32.469 54.2638 32.1795 54.1096C31.8901 53.9553 31.643 53.7322 31.46 53.46ZM33.12 34.46C34.4229 34.4403 35.6909 34.0359 36.7647 33.2977C37.8384 32.5595 38.6701 31.5204 39.1551 30.311C39.6401 29.1016 39.7568 27.7758 39.4906 26.5002C39.2243 25.2247 38.587 24.0563 37.6588 23.1418C36.7305 22.2274 35.5526 21.6077 34.2732 21.3606C32.9938 21.1136 31.6699 21.2502 30.4679 21.7533C29.2659 22.2564 28.2394 23.1035 27.5174 24.1883C26.7954 25.273 26.4101 26.547 26.41 27.85C26.4087 28.7301 26.5815 29.6018 26.9186 30.4148C27.2557 31.2279 27.7504 31.9661 28.3742 32.5871C28.9979 33.208 29.7384 33.6994 30.5529 34.0329C31.3674 34.3663 32.2399 34.5353 33.12 34.53V34.46Z" fill="#76848C"/>
<path fill-rule="evenodd" clip-rule="evenodd" d="M33.1199 22.9398C32.1309 22.9398 31.1643 23.233 30.342 23.7824C29.5198 24.3318 28.8789 25.1127 28.5005 26.0264C28.122 26.94 28.023 27.9453 28.2159 28.9152C28.4089 29.8851 28.8851 30.776 29.5843 31.4753C30.2836 32.1746 31.1745 32.6508 32.1444 32.8437C33.1143 33.0366 34.1196 32.9376 35.0333 32.5592C35.9469 32.1807 36.7278 31.5399 37.2772 30.7176C37.8266 29.8954 38.1199 28.9287 38.1199 27.9398C38.1199 26.6137 37.5931 25.3419 36.6554 24.4042C35.7177 23.4666 34.4459 22.9398 33.1199 22.9398ZM25.6799 27.9398C25.6818 26.4687 26.1199 25.0312 26.9386 23.8091C27.7573 22.5869 28.92 21.6348 30.2796 21.0732C31.6393 20.5117 33.1349 20.3657 34.5774 20.6539C36.02 20.9422 37.3448 21.6515 38.3843 22.6924C39.4238 23.7333 40.1314 25.059 40.4176 26.502C40.7039 27.9449 40.556 29.4403 39.9926 30.7992C39.4291 32.1581 38.4755 33.3195 37.2523 34.1366C36.029 34.9537 34.5909 35.3898 33.1199 35.3898C32.1386 35.3898 31.167 35.1957 30.2611 34.8187C29.3552 34.4417 28.5328 33.8892 27.8412 33.193C27.1497 32.4968 26.6027 31.6707 26.2318 30.7623C25.8608 29.8538 25.6733 28.881 25.6799 27.8998V27.9398Z" fill="#76848C"/>
<path style="mix-blend-mode:multiply" opacity="0.25" d="M33.12 18.87L33.18 54.31C33.5032 54.3122 33.8222 54.236 34.1096 54.088C34.3969 53.94 34.6441 53.7245 34.83 53.46C44.7 39.37 48.07 35.46 48.99 31.16L33.12 18.87Z" fill="url(#paint0_linear_5_1151)"/>
<path d="M36.18 21.53C36.1286 20.7658 35.7769 20.0529 35.2017 19.547C34.6265 19.0412 33.8746 18.7834 33.11 18.83C32.3477 18.7888 31.5998 19.0487 31.0274 19.5537C30.455 20.0588 30.104 20.7686 30.05 21.53V33.05C30.1039 33.8133 30.4564 34.5246 31.031 35.03C31.6055 35.5353 32.3561 35.794 33.12 35.75C33.8829 35.7939 34.6323 35.5349 35.2053 35.0293C35.7783 34.5238 36.1285 33.8125 36.18 33.05V21.53Z" fill="white"/>
<path d="M36.18 41.01C36.18 40.4028 35.9999 39.8093 35.6626 39.3044C35.3253 38.7995 34.8458 38.4061 34.2848 38.1737C33.7239 37.9413 33.1066 37.8805 32.5111 37.999C31.9155 38.1175 31.3685 38.4098 30.9392 38.8392C30.5098 39.2685 30.2174 39.8156 30.099 40.4111C29.9805 41.0066 30.0413 41.6239 30.2737 42.1848C30.506 42.7458 30.8995 43.2253 31.4044 43.5626C31.9092 43.9 32.5028 44.08 33.11 44.08C33.9242 44.08 34.7051 43.7566 35.2808 43.1808C35.8565 42.6051 36.18 41.8242 36.18 41.01Z" fill="white"/>
<defs>
<linearGradient id="paint0_linear_5_1151" x1="32.34" y1="36.05" x2="41.06" y2="41.75" gradientUnits="userSpaceOnUse">
<stop offset="0.02" stop-color="#606060"/>
<stop offset="1" stop-color="white"/>
</linearGradient>
</defs>
</svg>

<svg width="65" height="65" viewBox="0 0 65 65" fill="none" xmlns="http://www.w3.org/2000/svg"><path d="M64.396 32.403c0 17.782-14.416 32.197-32.198 32.197S0 50.185 0 32.403C0 14.62 14.415.204 32.198.204c17.782 0 32.198 14.416 32.198 32.199Z" fill="#EBF3FA"/><mask id="a" style="mask-type:alpha" maskUnits="userSpaceOnUse" x="0" y="0" width="65" height="65"><path d="M64.413 32.392c0 17.788-14.419 32.207-32.206 32.207C14.419 64.6 0 50.18 0 32.392S14.42.186 32.207.186s32.206 14.419 32.206 32.206Z" fill="#EBF3FA"/></mask><g mask="url(#a)" fill="#9EACBC" fill-opacity=".25"><path d="M-.001 24.22c0-1.062.86-1.923 1.923-1.923h15.382c1.062 0 1.923.86 1.923 1.923v15.382c0 1.062-.86 1.923-1.923 1.923H1.922a1.923 1.923 0 0 1-1.923-1.923V24.22Zm24.996-4.807a1.923 1.923 0 0 1-1.922-1.923v-3.845c0-1.062.86-1.923 1.922-1.923h15.383c1.062 0 1.922.86 1.922 1.923v3.845c0 1.062-.86 1.923-1.922 1.923H24.995Zm0-11.537a1.923 1.923 0 0 1-1.922-1.922V2.108c0-1.062.86-1.923 1.922-1.923h15.383c1.062 0 1.922.861 1.922 1.923v3.846c0 1.061-.86 1.922-1.922 1.922H24.995ZM1.922 19.413A1.923 1.923 0 0 1-.001 17.49v-3.845c0-1.062.86-1.923 1.923-1.923h15.382c1.062 0 1.923.86 1.923 1.923v3.845c0 1.062-.86 1.923-1.923 1.923H1.922Zm0-11.537A1.923 1.923 0 0 1-.001 5.954V2.108c0-1.062.86-1.923 1.923-1.923h15.382c1.062 0 1.923.861 1.923 1.923v3.846c0 1.061-.86 1.922-1.923 1.922H1.922Zm46.146 56.722a1.923 1.923 0 0 1-1.922-1.923V58.83c0-1.062.86-1.923 1.922-1.923h15.383c1.062 0 1.922.86 1.922 1.923v3.845c0 1.062-.86 1.923-1.922 1.923H48.068Zm0-11.537a1.923 1.923 0 0 1-1.922-1.923v-3.845c0-1.062.86-1.923 1.922-1.923h15.383c1.062 0 1.922.86 1.922 1.923v3.845c0 1.062-.86 1.923-1.922 1.923H48.068Zm-24.995-5.768c0-1.062.86-1.923 1.922-1.923h15.383c1.062 0 1.922.861 1.922 1.923v15.383c0 1.061-.86 1.922-1.922 1.922H24.995a1.923 1.923 0 0 1-1.922-1.922V47.293Zm0-23.073c0-1.062.86-1.923 1.922-1.923h15.383c1.062 0 1.922.86 1.922 1.923v15.382c0 1.062-.86 1.923-1.922 1.923H24.995a1.923 1.923 0 0 1-1.922-1.923V24.22Zm23.072 0c0-1.062.861-1.923 1.923-1.923h15.383c1.062 0 1.922.86 1.922 1.923v15.382c0 1.062-.86 1.923-1.922 1.923H48.068a1.923 1.923 0 0 1-1.922-1.923V24.22ZM19.227 50.575v13.06a.96.96 0 0 1-.961.962H5.205c-.857 0-1.286-1.035-.68-1.641l13.061-13.061c.606-.606 1.641-.177 1.641.68ZM0 59.393V46.33c0-.53.43-.961.96-.961h13.062c.856 0 1.285 1.036.68 1.641L1.64 60.073c-.605.605-1.64.176-1.64-.68ZM65.374 5.39v13.06c0 .532-.43.962-.962.962h-13.06c-.857 0-1.286-1.035-.68-1.64L63.731 4.71c.606-.606 1.642-.177 1.642.68Zm-19.228 8.817V1.145c0-.53.43-.961.961-.961h13.061c.857 0 1.286 1.036.68 1.641L47.787 14.886c-.606.606-1.641.177-1.641-.68Z"/></g><path fill-rule="evenodd" clip-rule="evenodd" d="M0 32.499C0 14.555 14.546 0 32.499 0c17.953 0 32.499 14.555 32.499 32.499h-1.894c0-16.913-13.707-30.615-30.605-30.615S1.893 15.586 1.893 32.499H0Z" fill="#A8B6C6"/><path fill-rule="evenodd" clip-rule="evenodd" d="M32.499 64.6C14.546 64.6 0 50.045 0 32.1h1.893c0 16.913 13.708 30.615 30.606 30.615 16.898 0 30.605-13.702 30.605-30.615h1.894c0 17.944-14.546 32.499-32.5 32.499Z" fill="#A8B6C6"/><path d="M41.8 27.9a8.68 8.68 0 1 1-8.68-8.69 8.69 8.69 0 0 1 8.68 8.69Z" fill="#76848C"/><path d="M31.46 53.46C19.27 36.05 17 34.26 17 27.87a16.12 16.12 0 0 1 32.24 0c0 6.39-2.27 8.18-14.46 25.59a2.002 2.002 0 0 1-3.32 0Zm1.66-19a6.61 6.61 0 1 0-6.71-6.61 6.67 6.67 0 0 0 6.71 6.68v-.07Z" fill="#76848C"/><path fill-rule="evenodd" clip-rule="evenodd" d="M33.12 22.94a5 5 0 1 0 0 10 5 5 0 0 0 0-10Zm-7.44 5a7.44 7.44 0 1 1 .552 2.822 7.439 7.439 0 0 1-.552-2.862v.04Z" fill="#76848C"/><path style="mix-blend-mode:multiply" opacity=".25" d="m33.12 18.87.06 35.44a2 2 0 0 0 1.65-.85c9.87-14.09 13.24-18 14.16-22.3L33.12 18.87Z" fill="url(#b)"/><path d="M36.18 21.53a2.9 2.9 0 0 0-3.07-2.7 2.91 2.91 0 0 0-3.06 2.7v11.52a2.91 2.91 0 0 0 3.07 2.7 2.9 2.9 0 0 0 3.06-2.7V21.53Zm0 19.48a3.07 3.07 0 1 0-6.14 0 3.07 3.07 0 0 0 6.14 0Z" fill="#fff"/><defs><linearGradient id="b" x1="32.34" y1="36.05" x2="41.06" y2="41.75" gradientUnits="userSpaceOnUse"><stop offset=".02" stop-color="#606060"/><stop offset="1" stop-color="#fff"/></linearGradient></defs></svg>
